public/images/logo/vercel-light.svg

<svg fill="none" height="407" viewBox="0 0 2048 407" width="2048" xmlns="http://www.w3.org/2000/svg"><path clip-rule="evenodd" d="m467.444 406.664-233.722-406.473082-233.722 406.473082zm235.742-18.503 195.324-369.493h-84.486l-134.738 268.339-134.739-268.339h-84.486l195.324 369.493zm1331.124-369.493v369.494h-69.94v-369.494zm-389.33 231.582c0-28.796 6.01-54.123 18.03-75.98 12.02-21.858 28.78-38.684 50.27-50.48s46.63-17.695 75.41-17.695c25.5 0 48.45 5.552 68.85 16.654s36.61 27.582 48.63 49.439c12.02 21.858 18.22 48.572 18.58 80.144v16.133h-206c1.45 22.898 8.19 40.939 20.21 54.123 12.39 12.837 28.97 19.255 49.73 19.255 13.11 0 25.14-3.469 36.06-10.408 10.93-6.939 19.13-16.306 24.59-28.102l71.59 5.204c-8.75 26.02-25.14 46.837-49.18 62.449-24.05 15.613-51.73 23.419-83.06 23.419-28.78 0-53.92-5.898-75.41-17.694s-38.25-28.623-50.27-50.48c-12.02-21.858-18.03-47.184-18.03-75.981zm207.64-26.02c-2.55-22.552-9.65-39.031-21.31-49.44-11.66-10.755-25.86-16.133-42.62-16.133-19.31 0-34.97 5.725-46.99 17.174-12.03 11.449-19.49 27.582-22.41 48.399zm-325.66-49.44c11.66 9.368 18.94 22.378 21.86 39.031l72.12-3.643c-2.55-21.163-10.01-39.551-22.4-55.164-12.39-15.612-28.41-27.581-48.09-35.908-19.3-8.674-40.61-13.011-63.93-13.011-28.78 0-53.91 5.899-75.41 17.695-21.49 11.796-38.25 28.622-50.27 50.48-12.02 21.857-18.03 47.184-18.03 75.98 0 28.797 6.01 54.123 18.03 75.981 12.02 21.857 28.78 38.684 50.27 50.48 21.5 11.796 46.63 17.694 75.41 17.694 24.04 0 45.9-4.337 65.57-13.01 19.68-9.021 35.7-21.684 48.09-37.991 12.39-16.306 19.85-35.388 22.4-57.245l-72.67-3.123c-2.55 18.388-9.66 32.613-21.31 42.674-11.66 9.715-25.69 14.572-42.08 14.572-22.58 0-40.07-7.806-52.46-23.419-12.38-15.612-18.57-37.816-18.57-66.613 0-28.796 6.19-51 18.57-66.613 12.39-15.612 29.88-23.418 52.46-23.418 15.67 0 29.14 4.857 40.44 14.571zm-354.81-62.462h65.09l1.88 53.086c4.62-15.026 11.04-26.695 19.27-35.007 11.93-12.052 28.57-18.079 49.9-18.079h26.58v56.82h-27.12c-15.19 0-27.66 2.066-37.43 6.198-9.4 4.132-16.63 10.675-21.69 19.629-4.7 8.953-7.05 20.317-7.05 34.091v159.095h-69.43zm-300.225 61.942c-12.021 21.857-18.032 47.184-18.032 75.98 0 28.797 6.011 54.123 18.032 75.981 12.022 21.857 28.779 38.684 50.273 50.48 21.493 11.796 46.629 17.694 75.408 17.694 31.324 0 59.014-7.806 83.054-23.419 24.05-15.612 40.44-36.429 49.18-62.449l-71.58-5.204c-5.46 11.796-13.66 21.163-24.59 28.102s-22.95 10.408-36.064 10.408c-20.765 0-37.34-6.418-49.726-19.255-12.022-13.184-18.761-31.225-20.218-54.123h206.008v-16.133c-.37-31.572-6.56-58.286-18.58-80.144-12.02-21.857-28.23-38.337-48.63-49.439s-43.35-16.654-68.854-16.654c-28.779 0-53.915 5.899-75.408 17.695-21.494 11.796-38.251 28.622-50.273 50.48zm168.305.52c11.65 10.409 18.76 26.888 21.31 49.44h-133.332c2.915-20.817 10.383-36.95 22.404-48.399 12.022-11.449 27.686-17.174 46.994-17.174 16.754 0 30.964 5.378 42.624 16.133z" fill="#000" fill-rule="evenodd"/></svg>

<svg width="2048" height="407" viewBox="0 0 2048 407" fill="none" xmlns="http://www.w3.org/2000/svg">
<path fill-rule="evenodd" clip-rule="evenodd" d="M467.444 406.664L233.722 0.190918L0 406.664H467.444ZM703.186 388.161L898.51 18.668H814.024L679.286 287.007L544.547 18.668H460.061L655.385 388.161H703.186ZM2034.31 18.668V388.162H1964.37V18.668H2034.31ZM1644.98 250.25C1644.98 221.454 1650.99 196.127 1663.01 174.27C1675.03 152.412 1691.79 135.586 1713.28 123.79C1734.77 111.994 1759.91 106.095 1788.69 106.095C1814.19 106.095 1837.14 111.647 1857.54 122.749C1877.94 133.851 1894.15 150.331 1906.17 172.188C1918.19 194.046 1924.39 220.76 1924.75 252.332V268.465H1718.75C1720.2 291.363 1726.94 309.404 1738.96 322.588C1751.35 335.425 1767.93 341.843 1788.69 341.843C1801.8 341.843 1813.83 338.374 1824.75 331.435C1835.68 324.496 1843.88 315.129 1849.34 303.333L1920.93 308.537C1912.18 334.557 1895.79 355.374 1871.75 370.986C1847.7 386.599 1820.02 394.405 1788.69 394.405C1759.91 394.405 1734.77 388.507 1713.28 376.711C1691.79 364.915 1675.03 348.088 1663.01 326.231C1650.99 304.373 1644.98 279.047 1644.98 250.25ZM1852.62 224.23C1850.07 201.678 1842.97 185.199 1831.31 174.79C1819.65 164.035 1805.45 158.657 1788.69 158.657C1769.38 158.657 1753.72 164.382 1741.7 175.831C1729.67 187.28 1722.21 203.413 1719.29 224.23H1852.62ZM1526.96 174.79C1538.62 184.158 1545.9 197.168 1548.82 213.821L1620.94 210.178C1618.39 189.015 1610.93 170.627 1598.54 155.014C1586.15 139.402 1570.13 127.433 1550.45 119.106C1531.15 110.432 1509.84 106.095 1486.52 106.095C1457.74 106.095 1432.61 111.994 1411.11 123.79C1389.62 135.586 1372.86 152.412 1360.84 174.27C1348.82 196.127 1342.81 221.454 1342.81 250.25C1342.81 279.047 1348.82 304.373 1360.84 326.231C1372.86 348.088 1389.62 364.915 1411.11 376.711C1432.61 388.507 1457.74 394.405 1486.52 394.405C1510.56 394.405 1532.42 390.068 1552.09 381.395C1571.77 372.374 1587.79 359.711 1600.18 343.404C1612.57 327.098 1620.03 308.016 1622.58 286.159L1549.91 283.036C1547.36 301.424 1540.25 315.649 1528.6 325.71C1516.94 335.425 1502.91 340.282 1486.52 340.282C1463.94 340.282 1446.45 332.476 1434.06 316.863C1421.68 301.251 1415.49 279.047 1415.49 250.25C1415.49 221.454 1421.68 199.25 1434.06 183.637C1446.45 168.025 1463.94 160.219 1486.52 160.219C1502.19 160.219 1515.66 165.076 1526.96 174.79ZM1172.15 112.328H1237.24L1239.12 165.414C1243.74 150.388 1250.16 138.719 1258.39 130.407C1270.32 118.355 1286.96 112.328 1308.29 112.328H1334.87V169.148H1307.75C1292.56 169.148 1280.09 171.214 1270.32 175.346C1260.92 179.478 1253.69 186.021 1248.63 194.975C1243.93 203.928 1241.58 215.292 1241.58 229.066V388.161H1172.15V112.328ZM871.925 174.27C859.904 196.127 853.893 221.454 853.893 250.25C853.893 279.047 859.904 304.373 871.925 326.231C883.947 348.088 900.704 364.915 922.198 376.711C943.691 388.507 968.827 394.405 997.606 394.405C1028.93 394.405 1056.62 386.599 1080.66 370.986C1104.71 355.374 1121.1 334.557 1129.84 308.537L1058.26 303.333C1052.8 315.129 1044.6 324.496 1033.67 331.435C1022.74 338.374 1010.72 341.843 997.606 341.843C976.841 341.843 960.266 335.425 947.88 322.588C935.858 309.404 929.119 291.363 927.662 268.465H1133.67V252.332C1133.3 220.76 1127.11 194.046 1115.09 172.188C1103.07 150.331 1086.86 133.851 1066.46 122.749C1046.06 111.647 1023.11 106.095 997.606 106.095C968.827 106.095 943.691 111.994 922.198 123.79C900.704 135.586 883.947 152.412 871.925 174.27ZM1040.23 174.79C1051.88 185.199 1058.99 201.678 1061.54 224.23H928.208C931.123 203.413 938.591 187.28 950.612 175.831C962.634 164.382 978.298 158.657 997.606 158.657C1014.36 158.657 1028.57 164.035 1040.23 174.79Z" fill="black"/>
</svg>
